packages/Iconly/src/Setting22Icon/index.svg

<svg xmlns="http://www.w3.org/2000/svg" width="24" height="24" viewBox="0 0 24 24"><g fill="#200E32" fill-rule="nonzero" transform="translate(2.5 2)"><path d="M17.9783447,11.715509 L17.9783447,11.715509 C17.031972,11.1676705 16.7044443,9.98616809 17.2391134,9.04885293 C17.4146383,8.74622209 17.6698063,8.49462506 17.9783447,8.31996694 L17.9783447,8.31996694 C18.4473064,8.05765887 18.7897963,7.62434465 18.9302036,7.11568641 C19.0706109,6.60702817 18.9973888,6.06485678 18.7267024,5.6088666 L18.7267024,5.6088666 L18.0604816,4.44442678 C17.7911661,3.98766717 17.3462762,3.65408853 16.8240295,3.51733451 C16.3017829,3.38058049 15.7451277,3.45189743 15.2769561,3.71554079 L15.2769561,3.71554079 C14.8073941,3.97959895 14.2493617,4.05115207 13.7256315,3.91445776 C13.2019013,3.77776345 12.7553792,3.4440202 12.4843043,2.9866548 C12.3068678,2.68317478 12.2125824,2.34033484 12.210515,1.9911032 L12.210515,1.9911032 C12.2129425,1.46384885 11.9995958,0.957378304 11.6176644,0.583716293 C11.235733,0.210054283 10.7166922,0 10.1753472,0 L8.83377915,0 C7.70830116,0 6.79450951,0.886031318 6.78948505,1.98221435 C6.79330713,2.6931594 6.40591794,3.35165041 5.77424527,3.70793694 C5.14257259,4.06422348 4.36336968,4.06373315 3.73217021,3.70665194 L3.73217021,3.70665194 C3.25968018,3.43228011 2.69327806,3.35588524 2.16201647,3.49487359 C1.63075488,3.63386195 1.17988631,3.97639461 0.912139501,4.44442678 L0.912139501,4.44442678 L0.273297594,5.56442233 C-0.285071865,6.51480763 0.0492538645,7.72598064 1.02165526,8.27552267 L1.02165526,8.27552267 C1.99620802,8.82836189 2.3269886,10.0454634 1.76088661,10.9955119 C1.58774231,11.2975959 1.3318093,11.5468698 1.02165526,11.715509 L1.02165526,11.715509 C0.552693636,11.9778171 0.21020368,12.4111313 0.0697963744,12.9197895 C-0.0706109308,13.4284478 0.00261118755,13.9706192 0.273297594,14.4266093 L0.273297594,14.4266093 L0.912139501,15.5643826 C1.47974743,16.5135783 2.72936296,16.8357522 3.70479127,16.2843797 L3.70479127,16.2843797 C4.68124592,15.7457106 5.92084252,16.0703078 6.48831672,17.0132657 C6.66892498,17.3154685 6.76344118,17.6591478 6.76210611,18.0088173 L6.76210611,18.0088173 C6.76208437,18.5399854 6.9799685,19.0491432 7.3673048,19.4230627 C7.7546411,19.7969823 8.27931673,20.0046631 8.82465284,20 L10.1662208,20 C11.2952533,20 12.210515,19.1084733 12.210515,18.0088173 L12.210515,18.0088173 C12.2031893,17.4784963 12.4143698,16.9674345 12.7968347,16.5899097 C13.1792996,16.2123848 13.7011453,15.9998884 14.2456827,15.9999364 C14.6048086,15.997767 14.9579002,16.0898842 15.2678298,16.266602 L15.2678298,16.266602 C16.243604,16.8104432 17.4871326,16.4848163 18.0513552,15.537716 L18.7267024,14.3999428 C19.2719473,13.4562499 18.9387454,12.2610214 17.9783447,11.715509 Z" opacity=".4"/><circle cx="9.5" cy="10" r="2.5"/></g></svg>

<svg xmlns="http://www.w3.org/2000/svg" viewBox="0 0 24 24">
  <g fill="#200E32" transform="translate(2.5 2)">
    <path d="M17.978 11.716a1.954 1.954 0 01-.739-2.667c.176-.303.43-.554.74-.729a1.99 1.99 0 00.951-1.204 1.942 1.942 0 00-.203-1.507l-.667-1.165a2.029 2.029 0 00-1.236-.927 2.083 2.083 0 00-1.547.199 2.092 2.092 0 01-1.551.198 2.038 2.038 0 01-1.242-.927 1.995 1.995 0 01-.273-.996 1.956 1.956 0 00-.593-1.407A2.063 2.063 0 0010.175 0H8.834c-1.126 0-2.04.886-2.045 1.982a1.972 1.972 0 01-1.015 1.726 2.082 2.082 0 01-2.042-.001 2.082 2.082 0 00-1.57-.212 2.028 2.028 0 00-1.25.95l-.639 1.12a1.963 1.963 0 00.749 2.71 1.963 1.963 0 01.739 2.72c-.173.303-.43.552-.74.72A1.99 1.99 0 00.07 12.92c-.14.508-.067 1.05.203 1.507l.64 1.137c.567.95 1.816 1.272 2.792.72.976-.538 2.216-.214 2.783.73.18.301.275.645.274.995 0 .531.218 1.04.605 1.414.388.374.912.582 1.458.577h1.341c1.13 0 2.045-.892 2.045-1.991a1.955 1.955 0 01.586-1.42c.382-.377.904-.59 1.449-.59a2.04 2.04 0 011.022.268c.976.543 2.22.218 2.783-.73l.676-1.137a1.954 1.954 0 00-.749-2.684z" opacity=".4"/>
    <circle cx="9.5" cy="10" r="2.5"/>
  </g>
</svg>
